brandFactory_export/2.Regular/Balanza_Justicia_Legal_2Regular.svg

<?xml version="1.0" encoding="UTF-8"?>
<svg width="24px" height="24px" viewBox="0 0 24 24" version="1.1" xmlns="http://www.w3.org/2000/svg" xmlns:xlink="http://www.w3.org/1999/xlink">
    <title>2.Regular/Balanza_Justicia_Legal_2Regular</title>
    <g id="Symbols" stroke="none" stroke-width="1" fill="none" fill-rule="evenodd">
        <g id="2.Regular/Balanza_Justicia_Legal_2Regular" fill="#5CB615" fill-rule="nonzero">
            <path d="M21.6806723,15.805042 C21.4252101,16.0605042 21.0453782,16.2117647 20.5478992,16.2453782 C20.4168067,16.2521008 19.4823529,16.2554622 19.3915966,16.2554622 C19.3243697,16.2554622 18.4,16.2521008 18.2957983,16.2487395 C17.7714286,16.2252101 17.3680672,16.0739496 17.0957983,15.805042 C16.9243697,15.6336134 16.8,15.4016807 16.7226891,15.1159664 L22.0504202,15.1159664 C21.9764706,15.4016807 21.8521008,15.6336134 21.6806723,15.805042 L21.6806723,15.805042 Z M18.9546218,6.76638655 L21.7546218,13.5663866 L16.9042017,13.5663866 L18.9546218,6.76638655 Z M15.6806723,21.1361345 C16.2319328,21.1361345 16.6420168,21.2705882 16.907563,21.5361345 C17.0420168,21.6739496 17.1428571,21.8521008 17.2134454,22.0739496 L6.41344538,22.0739496 C6.48067227,21.8521008 6.58487395,21.6739496 6.71596639,21.5361345 C6.97815126,21.2705882 7.39159664,21.1361345 7.94285714,21.1361345 L15.6806723,21.1361345 Z M11.1596639,5.26386555 L11.3647059,5.26386555 C11.3747899,5.26386555 11.3848739,5.27058824 11.394958,5.27058824 C11.405042,5.27058824 11.6537815,5.26722689 11.8655462,5.26722689 L11.8655462,5.27058824 L12.2352941,5.27058824 C12.2453782,5.27058824 12.2554622,5.26386555 12.2655462,5.26386555 L12.4672269,5.26386555 L12.4672269,19.5865546 L11.1596639,19.5865546 L11.1596639,5.26386555 Z M6.71932773,13.5663866 L1.86890756,13.5663866 L4.66890756,6.76638655 L6.71932773,13.5663866 Z M6.52773109,15.805042 C6.25882353,16.0739496 5.85210084,16.2218487 5.33109244,16.2487395 C5.22689076,16.2521008 4.30252101,16.2554622 4.23529412,16.2554622 C4.14453782,16.2554622 3.21008403,16.2521008 3.0789916,16.2453782 C2.58151261,16.2117647 2.20168067,16.0638655 1.94285714,15.805042 C1.77142857,15.6336134 1.64705882,15.4016807 1.57310924,15.1159664 L6.90084034,15.1159664 C6.82352941,15.4016807 6.69915966,15.6336134 6.52773109,15.805042 L6.52773109,15.805042 Z M23.6235294,14.3394958 C23.6235294,14.3058824 23.6067227,14.2756303 23.6033613,14.2386555 C23.5966387,14.1680672 23.589916,14.1008403 23.5630252,14.0369748 L20.0201681,5.43529412 C20.1815126,5.50588235 20.3294118,5.58655462 20.4436975,5.69747899 C20.5882353,5.84201681 20.7697479,5.91260504 20.9546218,5.91260504 C21.1495798,5.91260504 21.3445378,5.83193277 21.492437,5.67394958 C21.7747899,5.36806723 21.7647059,4.87731092 21.4689076,4.57815126 C20.9445378,4.05378151 20.2319328,3.76470588 19.3478992,3.7210084 C19.2773109,3.71764706 15.3478992,3.71428571 13.0689076,3.71428571 C13.1596639,3.65378151 13.2436975,3.59327731 13.3176471,3.51932773 C13.6571429,3.17647059 13.8319328,2.66890756 13.8319328,2.01344538 C13.8319328,1.3512605 13.6605042,0.843697479 13.3176471,0.500840336 C12.9915966,0.168067227 12.5176471,0 11.912605,0 C11.9092437,0 11.902521,0 11.8991597,0.00336134454 L11.8991597,0 L11.7243697,0 C11.1193277,0 10.6453782,0.168067227 10.3193277,0.500840336 C9.97983193,0.843697479 9.80504202,1.3512605 9.80504202,2.01344538 C9.80504202,2.66890756 9.97647059,3.17647059 10.3193277,3.51932773 C10.389916,3.59327731 10.4773109,3.65714286 10.5680672,3.71428571 C8.28571429,3.71428571 4.35630252,3.71428571 4.28907563,3.7210084 C3.40504202,3.76470588 2.69243697,4.05378151 2.16806723,4.57815126 C1.86890756,4.87394958 1.86218487,5.36470588 2.14453782,5.67394958 C2.28907563,5.83529412 2.48403361,5.91260504 2.6789916,5.91260504 C2.86386555,5.91260504 3.0487395,5.84201681 3.18991597,5.69747899 C3.30084034,5.58655462 3.45210084,5.50252101 3.61008403,5.43529412 L0.0672268908,14.0369748 C0.0403361345,14.1008403 0.0369747899,14.1714286 0.0268907563,14.2386555 C0.0235294118,14.2722689 0.00672268908,14.3058824 0.00672268908,14.3394958 L0.00672268908,14.3428571 C0.00672268908,15.4453782 0.315966387,16.312605 0.917647059,16.9210084 C1.43193277,17.4386555 2.12436975,17.7310924 2.97815126,17.7915966 C3.07563025,17.7983193 4.13781513,17.805042 4.23865546,17.805042 C4.3092437,17.805042 5.3210084,17.8016807 5.39495798,17.7983193 C6.29579832,17.7546218 7.02521008,17.4621849 7.55966387,16.9243697 C8.15462185,16.3294118 8.45378151,15.4857143 8.47058824,14.4268908 C8.47058824,14.4201681 8.47058824,14.4134454 8.47394958,14.4067227 C8.47394958,14.3831933 8.47731092,14.3663866 8.47731092,14.3428571 C8.47731092,14.2991597 8.4605042,14.2621849 8.45378151,14.2218487 C8.44705882,14.1848739 8.45378151,14.1478992 8.44369748,14.107563 L5.77478992,5.26722689 C6.87058824,5.26722689 8.39327731,5.26722689 9.68067227,5.26386555 L9.68067227,19.5865546 L7.94957983,19.5865546 C6.99831933,19.5865546 6.24201681,19.8689076 5.6907563,20.4235294 C5.11932773,20.9983193 4.8302521,21.8151261 4.8302521,22.8470588 C4.8302521,23.2739496 5.16302521,23.6201681 5.57310924,23.6201681 C5.59663866,23.6201681 5.61680672,23.610084 5.64033613,23.6067227 C5.6605042,23.610084 5.68067227,23.6201681 5.70420168,23.6201681 L17.9327731,23.6201681 C17.9563025,23.6201681 17.9764706,23.610084 18,23.6067227 C18.0201681,23.610084 18.0403361,23.6201681 18.0638655,23.6201681 C18.4739496,23.6201681 18.8067227,23.2739496 18.8067227,22.8470588 C18.8067227,21.8117647 18.5176471,20.9983193 17.9462185,20.4235294 C17.394958,19.8689076 16.6386555,19.5865546 15.6907563,19.5865546 L13.9563025,19.5865546 L13.9563025,5.26386555 C15.2436975,5.26386555 16.7697479,5.26386555 17.8655462,5.26722689 L15.2,14.107563 C15.1865546,14.1478992 15.1932773,14.1848739 15.1865546,14.2218487 C15.1798319,14.2621849 15.1630252,14.2991597 15.1630252,14.3428571 C15.1630252,14.3630252 15.1663866,14.3831933 15.1663866,14.4067227 C15.1663866,14.4134454 15.1663866,14.4201681 15.1697479,14.4268908 C15.1865546,15.4857143 15.4890756,16.3294118 16.0806723,16.9243697 C16.6184874,17.4621849 17.3478992,17.7546218 18.2487395,17.7983193 C18.3193277,17.8016807 19.3310924,17.805042 19.4016807,17.805042 C19.502521,17.805042 20.5613445,17.7983193 20.6588235,17.7915966 C21.5092437,17.7310924 22.205042,17.4386555 22.7193277,16.9210084 C23.3142857,16.3092437 23.6235294,15.4420168 23.6235294,14.3394958 L23.6235294,14.3394958 Z" id="Balanza_Justicia_Legal_2Regular"></path>
        </g>
    </g>
</svg>

<svg width="24" height="24" viewBox="0 0 24 24" xmlns="http://www.w3.org/2000/svg"><path d="M21.68 15.805c-.255.256-.635.407-1.132.44a69.917 69.917 0 01-2.252.004c-.525-.024-.928-.175-1.2-.444a1.514 1.514 0 01-.373-.689h5.327a1.48 1.48 0 01-.37.689zm-2.725-9.039l2.8 6.8h-4.85l2.05-6.8zm-3.274 14.37c.55 0 .961.135 1.227.4.134.138.235.316.305.538h-10.8c.068-.222.172-.4.303-.538.262-.265.676-.4 1.227-.4h7.738zM11.16 5.264h.205c.01 0 .02.007.03.007.01 0 .259-.004.47-.004v.004h.37c.01 0 .02-.007.03-.007h.202v14.323H11.16V5.264zm-4.44 8.302H1.868l2.8-6.8 2.05 6.8zm-.192 2.239c-.27.269-.676.417-1.197.444a69.917 69.917 0 01-2.252-.003c-.497-.034-.877-.182-1.136-.441a1.48 1.48 0 01-.37-.689h5.328a1.514 1.514 0 01-.373.689zm17.096-1.466c0-.033-.017-.063-.02-.1a.672.672 0 00-.041-.202L20.02 5.435c.162.07.31.152.424.262a.716.716 0 00.51.216c.196 0 .39-.081.538-.24a.801.801 0 00-.023-1.095c-.524-.524-1.237-.813-2.121-.857-.07-.003-4-.007-6.28-.007.092-.06.176-.12.25-.195.34-.343.514-.85.514-1.506 0-.662-.171-1.17-.514-1.512-.326-.333-.8-.501-1.405-.501-.004 0-.01 0-.014.003V0h-.175c-.605 0-1.079.168-1.405.5-.34.344-.514.851-.514 1.513 0 .656.171 1.163.514 1.506.07.074.158.138.25.195-2.283 0-6.213 0-6.28.007-.884.044-1.597.333-2.12.857a.798.798 0 00-.024 1.096c.144.161.339.239.534.239a.71.71 0 00.51-.216c.112-.11.263-.194.421-.262L.067 14.037c-.027.064-.03.134-.04.202-.003.033-.02.067-.02.1v.004c0 1.102.309 1.97.91 2.578.515.518 1.207.81 2.061.87a78.378 78.378 0 002.417.007c.9-.043 1.63-.336 2.165-.874.595-.595.894-1.438.91-2.497 0-.007 0-.014.004-.02 0-.024.003-.04.003-.064 0-.044-.016-.08-.023-.121-.007-.037 0-.074-.01-.114l-2.67-8.84c1.097 0 2.62 0 3.907-.004v14.323H7.95c-.952 0-1.708.282-2.26.837-.57.574-.86 1.391-.86 2.423 0 .427.333.773.743.773.024 0 .044-.01.067-.013.02.003.04.013.064.013h12.229c.023 0 .043-.01.067-.013.02.003.04.013.064.013.41 0 .743-.346.743-.773 0-1.035-.29-1.849-.86-2.423-.552-.555-1.308-.837-2.256-.837h-1.735V5.264c1.288 0 2.814 0 3.91.003l-2.666 8.84c-.013.04-.007.078-.013.115-.007.04-.024.077-.024.12 0 .021.003.041.003.065 0 .006 0 .013.004.02.017 1.059.32 1.902.91 2.497.538.538 1.268.83 2.169.874a77.96 77.96 0 002.41-.007c.85-.06 1.546-.352 2.06-.87.595-.612.905-1.479.905-2.582z" fill="#5CB615" fill-rule="nonzero"/></svg>
